X: 554
T: Fanny Hill
C:David Grisman
B: jims roots
M:4/4
L:1/8
Q: 1/4=100
K:Adorian
V:1 
cd |: "A"[e2e2][ee][ee] y[e2e2]ee | "G"efgf gfed | "A"[e2e2][ee][ee] y[e2e2]ee | "D"egab geee |
      "A"[e2e2][ee][ee] y[e2e2]ee | "G"efgf gfed |"E7"[e2e2]eg edcA | dcAG  "A"[A4A4] :|
|: "A"A,2 CE DEGc | Acdg eged | "C"c2Gc AcAG | EGED CEDC | "A"A,2 CE DEGc |
Acdg eged | cBAG EDCD | EFGA "E7"[e4B4] | [e2e2] eg edcA | dc AG "A"[A4A4] :|
% abcbook-tune_id 6298c25d5ce7752f3219df94


% abcbook-boost 0
% abcbook-tablature 
% abcbook-transpose 
% abcbook-lastupdated 1654178397901
% abcbook-soundfonts 
% abcbook-repeats 1


